www/assets/icons/brightness_7.svg

<svg width="24" height="24" viewBox="0 0 24 24" xmlns="http://www.w3.org/2000/svg" fill='currentColor'><g clip-path="url(#clip0_1616_5161)"><path d="M20 8.68994V3.99994H15.31L12 0.689941L8.69 3.99994H4V8.68994L0.690002 11.9999L4 15.3099V19.9999H8.69L12 23.3099L15.31 19.9999H20V15.3099L23.31 11.9999L20 8.68994ZM12 17.9999C8.69 17.9999 6 15.3099 6 11.9999C6 8.68994 8.69 5.99994 12 5.99994C15.31 5.99994 18 8.68994 18 11.9999C18 15.3099 15.31 17.9999 12 17.9999ZM12 7.99994C9.79 7.99994 8 9.78994 8 11.9999C8 14.2099 9.79 15.9999 12 15.9999C14.21 15.9999 16 14.2099 16 11.9999C16 9.78994 14.21 7.99994 12 7.99994Z"/></g><defs><clipPath id="clip0_1616_5161"><rect width="24" height="24"/></clipPath></defs></svg>

<svg xmlns="http://www.w3.org/2000/svg" width="24" height="24" viewBox="0 0 24 24" fill='currentColor'><g clip-path="url(#a)"><path d="M20 8.69V4h-4.69L12 .69 8.69 4H4v4.69L.69 12 4 15.31V20h4.69L12 23.31 15.31 20H20v-4.69L23.31 12zM12 18c-3.31 0-6-2.69-6-6s2.69-6 6-6 6 2.69 6 6-2.69 6-6 6m0-10c-2.21 0-4 1.79-4 4s1.79 4 4 4 4-1.79 4-4-1.79-4-4-4"/></g><defs><clipPath id="a"><path d="M0 0h24v24H0z"/></clipPath></defs></svg>
